src/lib/packages/icons/src/assets/filled/laptop-code.svg

<svg width="24" height="24" viewBox="0 0 24 24" fill="none" xmlns="http://www.w3.org/2000/svg">
<path d="M4.30005 14.5H19.7C19.866 14.5 20 14.366 20 14.2V7C20 5 19 4 17 4H7C5 4 4 5 4 7V14.2C4 14.366 4.13405 14.5 4.30005 14.5ZM13.47 8.53003C13.177 8.23703 13.177 7.76199 13.47 7.46899C13.763 7.17599 14.238 7.17599 14.531 7.46899L16.531 9.46899C16.824 9.76199 16.824 10.237 16.531 10.53L14.531 12.53C14.385 12.676 14.193 12.75 14.001 12.75C13.809 12.75 13.6169 12.677 13.4709 12.53C13.1779 12.237 13.1779 11.762 13.4709 11.469L14.9409 9.99902L13.47 8.53003ZM7.46997 9.46997L9.46997 7.46997C9.76297 7.17697 10.238 7.17697 10.531 7.46997C10.824 7.76297 10.824 8.23801 10.531 8.53101L9.06104 10.001L10.531 11.4709C10.824 11.7639 10.824 12.239 10.531 12.532C10.385 12.678 10.193 12.752 10.001 12.752C9.80898 12.752 9.61695 12.679 9.47095 12.532L7.47095 10.532C7.17695 10.237 7.17697 9.76297 7.46997 9.46997ZM21 16.3V17C21 18.333 20.333 19 19 19H5C3.667 19 3 18.333 3 17V16.3C3 16.134 3.13405 16 3.30005 16H20.7C20.866 16 21 16.134 21 16.3Z" fill="currentColor"/>
</svg>

<svg xmlns="http://www.w3.org/2000/svg" width="24" height="24" fill="none"><path fill="currentColor" d="M4.3 14.5h15.4a.3.3 0 0 0 .3-.3V7c0-2-1-3-3-3H7C5 4 4 5 4 7v7.2a.3.3 0 0 0 .3.3Zm9.17-5.97a.75.75 0 0 1 1.061-1.061l2 2a.75.75 0 0 1 0 1.061l-2 2a.748.748 0 0 1-1.06 0 .75.75 0 0 1 0-1.061l1.47-1.47L13.47 8.53Zm-6 .94 2-2a.75.75 0 1 1 1.061 1.061l-1.47 1.47 1.47 1.47a.75.75 0 0 1-1.06 1.061l-2-2A.75.75 0 0 1 7.47 9.47ZM21 16.3v.7c0 1.333-.667 2-2 2H5c-1.333 0-2-.667-2-2v-.7a.3.3 0 0 1 .3-.3h17.4a.3.3 0 0 1 .3.3Z"/></svg>
